X: 21214
T: Katy Is Waiting
R: jig
M: 6/8
K: Edorian
EEE E2d|BAF dBA|DED F3|ABA FED|EEE E2d|BAF ABc|d2d BAF|EFE E3:|
efe B3|efg edB|d3 dAF|DFA def|efe edB|BAF ABc|d2d BAF|EFE E3:|

